src/images/svg/symbols/bct-ltc.svg

<svg width="33" height="32" viewBox="0 0 33 32" fill="none" xmlns="http://www.w3.org/2000/svg">
<path d="M2.11328 11C2.11328 6.02944 6.14272 2 11.1133 2C16.0838 2 20.1133 6.02944 20.1133 11C20.1133 15.9706 16.0838 20 11.1133 20C6.14272 20 2.11328 15.9706 2.11328 11Z" fill="#F7931A"/>
<path d="M15.1567 9.88625C15.3333 8.70725 14.435 8.07331 13.2076 7.65031L13.6059 6.05281L12.6339 5.81094L12.2457 7.36625C11.9904 7.30212 11.7282 7.2425 11.4667 7.18287L11.8576 5.61744L10.8856 5.375L10.4874 6.97194C10.2759 6.92356 10.0677 6.87631 9.86636 6.82569L9.86748 6.82062L8.52648 6.48594L8.26773 7.52431C8.26773 7.52431 8.98942 7.68969 8.97423 7.69981C9.36798 7.79825 9.43886 8.05869 9.42705 8.26569L8.97367 10.0854C9.00067 10.0921 9.03555 10.1023 9.07492 10.1174L8.97198 10.0921L8.33636 12.6414C8.28798 12.7606 8.16592 12.9401 7.8903 12.872C7.90042 12.8861 7.1838 12.6959 7.1838 12.6959L6.70117 13.8086L7.9668 14.1241C8.20192 14.1832 8.43255 14.2451 8.65923 14.303L8.25705 15.9185L9.22848 16.1604L9.62673 14.5629C9.89223 14.6343 10.1499 14.7007 10.4019 14.7637L10.0047 16.3544L10.9767 16.5963L11.3789 14.9842C13.0372 15.2981 14.2837 15.1715 14.8085 13.6719C15.2315 12.4648 14.7877 11.7678 13.9152 11.3139C14.5509 11.1676 15.029 10.7497 15.1567 9.88625ZM12.9348 13.0014C12.635 14.2091 10.6015 13.556 9.9423 13.3923L10.4767 11.252C11.1359 11.4168 13.2492 11.7425 12.9348 13.0014ZM13.2357 9.86881C12.9618 10.9674 11.2698 10.4088 10.7214 10.2721L11.2051 8.3315C11.7535 8.46819 13.5215 8.723 13.2357 9.86881Z" fill="white"/>
<path d="M12.1133 21C12.1133 16.0294 16.1427 12 21.1133 12C26.0838 12 30.1133 16.0294 30.1133 21C30.1133 25.9706 26.0838 30 21.1133 30C16.1427 30 12.1133 25.9706 12.1133 21Z" fill="#BFBBBB"/>
<path d="M17.9785 22.8079L17.1758 23.1195L17.5628 21.5676L18.375 21.2413L19.5456 16.5H22.4307L21.5762 19.9852L22.3693 19.6641L21.9868 21.2109L21.1842 21.5321L20.7072 23.4913H25.0508L24.5597 25.5H17.3175L17.9785 22.8079Z" fill="white"/>
</svg>

<svg width="33" height="32" fill="none" xmlns="http://www.w3.org/2000/svg"><path d="M2.113 11a9 9 0 1 1 18 0 9 9 0 0 1-18 0Z" fill="#F7931A"/><path d="M15.157 9.886c.176-1.179-.722-1.813-1.95-2.236l.399-1.597-.972-.242-.388 1.555c-.256-.064-.518-.123-.78-.183l.392-1.566-.972-.242-.399 1.597c-.211-.048-.42-.096-.62-.146V6.82l-1.34-.335-.26 1.038s.722.166.707.176c.394.098.465.359.453.566l-.453 1.82a.87.87 0 0 1 .1.031l-.102-.025-.636 2.55c-.048.119-.17.298-.446.23.01.014-.706-.176-.706-.176L6.7 13.809l1.266.315.692.179-.402 1.615.971.242.399-1.597c.265.071.523.138.775.2l-.397 1.591.972.242.402-1.612c1.658.314 2.905.188 3.43-1.312.423-1.207-.021-1.904-.894-2.358.636-.146 1.114-.564 1.242-1.428Zm-2.222 3.115c-.3 1.208-2.334.555-2.993.391l.535-2.14c.659.165 2.772.49 2.458 1.75Zm.3-3.132c-.273 1.098-1.965.54-2.514.403l.484-1.94c.549.136 2.316.391 2.03 1.537Z" fill="#fff"/><path d="M12.113 21a9 9 0 1 1 18 0 9 9 0 0 1-18 0Z" fill="#BFBBBB"/><path d="m17.979 22.808-.803.311.387-1.551.812-.327 1.17-4.741h2.886l-.855 3.485.793-.32-.382 1.546-.803.321-.477 1.96h4.344L24.56 25.5h-7.242l.66-2.692Z" fill="#fff"/></svg>
